static/assets/images/exchanges/bitmart.svg

<svg width="218" height="256" viewBox="0 0 218 256" fill="none" xmlns="http://www.w3.org/2000/svg">
<path d="M138.564 183.868H59.7828V190.752H138.564V183.868ZM79.4997 226.685H20.4077V233.569H79.4997V226.685ZM40.037 183.898H0.719727V190.782H40.037V183.898ZM138.564 163.976H79.4708V170.86H138.564V163.976ZM59.725 163.976H20.4366V170.86H59.725V163.976ZM138.563 74.9878H40.0659V81.8711H138.563V74.9878ZM59.725 52.0931H20.4068V58.9754H59.725V52.0931Z" fill="white"/>
<path d="M190.801 118.272V118.097C197.661 106.116 201.257 92.5434 201.229 78.7368C201.201 64.9302 197.551 51.3727 190.642 39.4188C183.734 27.4648 173.809 17.5331 161.861 10.6159C149.912 3.69862 136.357 0.038092 122.55 0H40.0659V9.85701H122.784C133.38 9.89857 143.824 12.3807 153.305 17.1109C162.787 21.841 171.051 28.692 177.456 37.1323C183.862 45.5722 188.237 55.3743 190.243 65.7782C192.249 76.1821 191.831 86.9082 189.023 97.1246C192.126 83.7982 190.606 69.8125 184.712 57.4639C178.818 45.1153 168.901 35.1377 156.588 29.1695C148.423 25.2113 139.47 23.1461 130.397 23.1278H59.7828V32.9877H130.484C138.407 32.9906 146.217 34.8622 153.28 38.4505C160.344 42.0388 166.461 47.2426 171.135 53.6391C175.81 60.0356 178.91 67.4445 180.183 75.2641C181.456 83.0836 180.867 91.0932 178.464 98.6423C180.009 92.8179 180.2 86.7169 179.022 80.8073C177.844 74.8976 175.328 69.3362 171.668 64.5494C168.007 59.7627 163.299 55.8778 157.905 53.1926C152.51 50.5075 146.572 49.0934 140.547 49.0587H79.2956V59.0043H140.255C145.432 59.0138 150.517 60.3795 155.002 62.9654C159.487 65.5513 163.217 69.2672 165.819 73.743C168.421 78.2188 169.805 83.2983 169.834 88.4755C169.862 93.6527 168.534 98.7471 165.981 103.251C157.17 99.9748 147.846 98.2957 138.446 98.2927H59.6952V108.151H138.446C154.51 108.153 170.07 113.76 182.444 124.003C194.817 134.247 203.23 148.487 206.231 164.268C203.237 151.234 195.914 139.599 185.458 131.262C175.001 122.924 162.028 118.376 148.655 118.359H40.037V128.13H148.801C160.612 128.171 172.015 132.456 180.929 140.203C189.844 147.951 195.677 158.645 197.364 170.335C195.701 161.279 190.919 153.091 183.849 147.193C176.779 141.295 167.866 138.059 158.659 138.047H40.0958V147.906H158.63C166.466 147.906 173.981 151.019 179.522 156.56C185.063 162.101 188.176 169.616 188.176 177.452C188.176 185.288 185.063 192.803 179.522 198.344C173.981 203.885 166.466 206.998 158.63 206.998H20.4077V216.857H158.659C167.866 216.845 176.779 213.609 183.849 207.71C190.919 201.812 195.701 193.624 197.364 184.569C195.655 196.268 189.793 206.961 180.849 214.694C171.906 222.427 160.478 226.684 148.655 226.686H99.0712V236.544H148.655C161.498 236.527 173.988 232.332 184.238 224.593C194.487 216.853 201.941 205.988 205.472 193.64C201.782 208.599 193.193 221.894 181.074 231.408C168.954 240.921 154 246.107 138.593 246.14H40.1824V255.999H138.446C154.471 256.076 170.137 251.263 183.354 242.202C196.571 233.141 206.709 220.263 212.415 205.289C218.121 190.314 219.123 173.956 215.287 158.397C211.451 142.838 202.96 128.82 190.948 118.214L190.801 118.272Z" fill="white"/>
</svg>

<svg xmlns="http://www.w3.org/2000/svg" fill="none" viewBox="0 0 218 256"><path fill="#fff" d="M138.564 183.868H59.783v6.884h78.781zM79.5 226.685H20.408v6.884H79.5zm-39.463-42.787H.72v6.884h39.317zm98.527-19.922H79.471v6.884h59.093zm-78.839 0H20.437v6.884h39.288zm78.838-88.988H40.066v6.883h98.497zM59.725 52.093H20.407v6.882h39.318z"/><path fill="#fff" d="M190.801 118.272v-.175a78.893 78.893 0 0 0-28.94-107.481A78.9 78.9 0 0 0 122.55 0H40.066v9.857h82.718a68.97 68.97 0 0 1 67.459 55.921 69 69 0 0 1-1.22 31.347 60.318 60.318 0 0 0-58.626-73.997H59.783v9.86h70.701a50.37 50.37 0 0 1 49.699 42.276 50.4 50.4 0 0 1-1.719 23.378 39.47 39.47 0 0 0-20.559-45.45 39.5 39.5 0 0 0-17.358-4.133H79.296v9.945h60.959a29.634 29.634 0 0 1 25.726 44.247 79.1 79.1 0 0 0-27.535-4.958h-78.75v9.858h78.75a69 69 0 0 1 43.998 15.852 69 69 0 0 1 23.787 40.265 59.15 59.15 0 0 0-57.576-45.909H40.037v9.771h108.764a49.24 49.24 0 0 1 48.563 42.205 39.41 39.41 0 0 0-38.705-32.288H40.096v9.859H158.63a29.546 29.546 0 0 1 0 59.092H20.408v9.859h138.251a39.41 39.41 0 0 0 38.705-32.288 49.234 49.234 0 0 1-48.709 42.117H99.071v9.858h49.584a59.18 59.18 0 0 0 56.817-42.904 69.04 69.04 0 0 1-66.879 52.5h-98.41v9.859h98.263a78.75 78.75 0 0 0 52.502-137.785z"/></svg>
